X: 212
T: Song of the Moccasin Game (b)
C: Teton Sioux band 1911-1914
N: Derived from sioux207.krn
O: South Dakota, U.S.A.
N: Teton Sioux Music by Frances Densmore, 1918
Z: transcribed to **kern format by Craig Sapp
L: 1/8
M: 3/4
Q: 1/4=58
K: C clef=bass
%%linebreak <none>
(3A, A, E E> D D/ C/ C/ C/ | 
(3E E E D> C C/ A,/ A,/ A,/ | 
(3C C D D> C C/ A,/ A,/ A,/ ||  
[M:2/4]A,/ E,/ A,/ A,/ (3z A, E, |[3 
(3E, E, E, E, E, ||[3 
[M:3/4](3A, A, z A, A,A,2 :|]  



